static/assets/images/icons/layerzero.svg

<svg width="256" height="256" viewBox="0 0 256 256" fill="none" xmlns="http://www.w3.org/2000/svg">
<path d="M128.268 18C120.065 18 111.997 19.7622 104.332 22.8799C96.8017 26.1331 89.9437 30.7418 84.1614 36.7061C78.3791 42.6704 73.8071 49.5835 70.7143 57.3099C67.6214 65.0363 66.0078 73.305 66.1422 81.5736V102.584H116.569V72.085C116.569 70.5939 116.838 69.2384 117.376 67.8829C117.914 66.5274 118.721 65.3075 119.662 64.3586C120.603 63.4097 121.813 62.5964 123.158 62.0542C124.503 61.512 125.848 61.2409 127.327 61.2409H129.209C130.554 61.2409 132.033 61.512 133.378 62.0542C134.723 62.5964 135.933 63.4097 136.874 64.3586C137.816 65.3075 138.622 66.5274 139.16 67.8829C139.698 69.2384 139.967 70.5939 139.967 72.085V153.687C146.556 153.687 153.145 152.331 159.331 149.756C165.517 147.181 171.03 143.385 175.736 138.641C180.443 133.896 184.208 128.203 186.629 122.104C189.184 115.868 190.528 109.226 190.528 102.584V81.5736C190.528 64.7652 184.074 48.4991 172.375 36.5706C166.592 30.6063 159.734 25.9975 152.204 22.7443C144.539 19.6266 136.471 18 128.268 18Z" fill="black"/>
<path d="M129.209 195.03H127.327C125.982 195.03 124.503 194.759 123.158 194.217C121.813 193.675 120.738 192.861 119.662 191.913C118.721 190.964 117.914 189.744 117.376 188.388C116.838 187.033 116.569 185.677 116.569 184.186V102.584C109.98 102.584 103.391 103.94 97.2052 106.515C91.0195 109.091 85.5061 112.886 80.7996 117.63C76.0931 122.375 72.3279 128.068 69.9074 134.168C67.3525 140.403 66.0078 147.045 66.0078 153.687V174.426C65.8733 182.695 67.487 190.964 70.5798 198.69C73.6726 206.417 78.2447 213.465 84.0269 219.294C89.8092 225.258 96.6673 229.867 104.198 233.12C111.728 236.373 119.931 238 128.134 238C136.336 238 144.539 236.373 152.069 233.12C159.6 229.867 166.592 225.258 172.24 219.294C178.022 213.33 182.594 206.417 185.687 198.69C188.78 190.964 190.259 182.695 190.259 174.426V153.687H139.967H139.833V184.186C139.833 185.677 139.564 187.033 139.026 188.388C138.488 189.744 137.681 190.964 136.74 191.913C135.798 192.861 134.588 193.675 133.243 194.217C132.033 194.759 130.689 195.03 129.209 195.03Z" fill="black"/>
</svg>

<svg xmlns="http://www.w3.org/2000/svg" viewBox="0 0 256 256"><path d="M128.268 18c-8.203 0-16.271 1.762-23.936 4.88-7.53 3.253-14.388 7.862-20.17 13.826S73.806 49.583 70.713 57.31s-4.706 15.995-4.572 24.264v21.01h50.427V72.085c0-1.491.269-2.847.807-4.202a10.6 10.6 0 0 1 2.286-3.524 10.5 10.5 0 0 1 3.496-2.305 10.9 10.9 0 0 1 4.169-.813h1.882a11.4 11.4 0 0 1 4.169.813 10.5 10.5 0 0 1 3.496 2.305 10.6 10.6 0 0 1 2.286 3.524c.538 1.355.807 2.71.807 4.202v81.602c6.589 0 13.178-1.356 19.364-3.931s11.699-6.371 16.405-11.115c4.707-4.745 8.472-10.438 10.893-16.537 2.555-6.236 3.899-12.878 3.899-19.52v-21.01c0-16.809-6.454-33.075-18.153-45.003-5.783-5.965-12.641-10.573-20.171-13.827C144.539 19.627 136.471 18 128.268 18"/><path d="M129.209 195.03h-1.882a11.4 11.4 0 0 1-4.169-.813c-1.345-.542-2.42-1.356-3.496-2.304a10.6 10.6 0 0 1-2.286-3.525 11.1 11.1 0 0 1-.807-4.202v-81.602c-6.589 0-13.178 1.356-19.364 3.931S85.506 112.886 80.8 117.63c-4.707 4.745-8.472 10.438-10.893 16.538-2.554 6.235-3.9 12.877-3.9 19.519v20.739c-.134 8.269 1.48 16.538 4.573 24.264 3.093 7.727 7.665 14.775 13.447 20.604 5.782 5.964 12.64 10.573 20.171 13.826s15.733 4.88 23.936 4.88 16.405-1.627 23.935-4.88c7.531-3.253 14.523-7.862 20.171-13.826 5.782-5.964 10.354-12.877 13.447-20.604s4.572-15.995 4.572-24.264v-20.739h-50.426v30.499a11.1 11.1 0 0 1-.807 4.202 10.6 10.6 0 0 1-2.286 3.525 10.5 10.5 0 0 1-3.497 2.304q-1.815.813-4.034.813"/></svg>
